docs/assets/images/magento.svg

<svg width="50" height="50" viewBox="0 0 50 50" fill="none" xmlns="http://www.w3.org/2000/svg">
<g clip-path="url(#clip0_913_28238)">
<path d="M27.1944 17.1927V39.2929L24.9896 40.6211L22.7831 39.2858V17.2098L17.0698 20.6772V39.5768L24.9896 44.3534L32.9765 39.5428V20.6651L27.1944 17.1927ZM24.9896 5.55554L8.3335 15.5026V34.4047L12.6594 36.9167V18.0128L24.993 10.6206L37.338 18.002L37.389 18.0307L37.3835 36.8884L41.6668 34.4047V15.5026L24.9896 5.55554Z" fill="#EC6737"/>
</g>
<defs>
<clipPath id="clip0_913_28238">
<rect width="33.3333" height="38.8889" fill="white" transform="translate(8.3335 5.55554)"/>
</clipPath>
</defs>
</svg>

<svg xmlns="http://www.w3.org/2000/svg" fill="none" viewBox="0 0 50 50"><g clip-path="url(#a)"><path fill="#EC6737" d="M27.194 17.193v22.1L24.99 40.62l-2.207-1.335V17.21l-5.713 3.467v18.9l7.92 4.776 7.987-4.81V20.665l-5.783-3.472zM24.99 5.556 8.334 15.503v18.902l4.325 2.512V18.013l12.334-7.392 12.345 7.381.051.029-.006 18.857 4.284-2.483V15.503L24.99 5.556z"/></g><defs><clipPath id="a"><path fill="#fff" d="M0 0H33.333V38.889H0z" transform="translate(8.334 5.556)"/></clipPath></defs></svg>
